X:764
T:Off She Goes
R:Jig
B:The Athole Collection
M:6/8
L:1/8
K:D
A|F2A G2B|ABc d3|F2A G2B|AFD E3|F2A G2B|ABc d2e|f2d g2f|edc d2:|
|:g|f/g/af d2f|g/a/bg e2g|f/g/af d2f|ecA A2g|f/g/af d2f|g/a/bg e2g|f2d g2f|edc
d2:|

